public/images/modals/icon-lock-gamepad.svg

<svg width="182" height="116" viewBox="0 0 182 116" fill="none" xmlns="http://www.w3.org/2000/svg">
<path fill-rule="evenodd" clip-rule="evenodd" d="M34.5962 37.5957C34.5962 35.9388 35.9393 34.5957 37.5962 34.5957H178.123C179.779 34.5957 181.123 35.9388 181.123 37.5957V112.999C181.123 114.656 179.779 115.999 178.123 115.999H37.5962C35.9393 115.999 34.5962 114.656 34.5962 112.999V37.5957ZM46.8066 81.4025C43.4348 81.4025 40.7014 78.6691 40.7014 75.2973C40.7014 71.9254 43.4348 69.192 46.8067 69.192C50.1785 69.192 52.9119 71.9254 52.9119 75.2973C52.9119 78.6691 50.1785 81.4025 46.8066 81.4025ZM62.0171 40.7002C60.3602 40.7002 59.0171 42.0433 59.0171 43.7002V106.893C59.0171 108.55 60.3602 109.893 62.0171 109.893H169.982C171.639 109.893 172.982 108.55 172.982 106.893L172.982 43.7002C172.982 42.0433 171.639 40.7002 169.982 40.7002H62.0171Z" fill="#3C365A"/>
<path d="M47.6609 15.8865C43.4474 11.673 37.7327 9.30589 31.7739 9.30589C25.8151 9.30589 20.1004 11.673 15.887 15.8865C11.6735 20.1 9.30636 25.8147 9.30636 31.7734C9.30636 37.7322 11.6735 43.4469 15.887 47.6604" stroke="#3C365A" stroke-width="5"/>
<path d="M40.6797 21.2227L52.8902 21.2227L52.8902 9.01213" stroke="#3C365A" stroke-width="5" stroke-linejoin="bevel"/>
</svg>

<svg width="182" height="116" fill="none" xmlns="http://www.w3.org/2000/svg"><path fill-rule="evenodd" clip-rule="evenodd" d="M34.596 37.596a3 3 0 0 1 3-3h140.527a3 3 0 0 1 3 3v75.403a3 3 0 0 1-3 3H37.596a3 3 0 0 1-3-3V37.596Zm12.21 43.807a6.105 6.105 0 1 1 0-12.21 6.105 6.105 0 0 1 0 12.21ZM62.018 40.7a3 3 0 0 0-3 3v63.193a3 3 0 0 0 3 3h107.965a3 3 0 0 0 3-3V43.7a3 3 0 0 0-3-3H62.017Z" fill="#3C365A"/><path d="M47.66 15.886A22.468 22.468 0 1 0 15.888 47.66" stroke="#3C365A" stroke-width="5"/><path d="M40.68 21.223h12.21V9.013" stroke="#3C365A" stroke-width="5" stroke-linejoin="bevel"/></svg>
